X: 27574
T: Monkey Woman And The Psionic Boy, The
R: mazurka
M: 3/4
K: Gmajor
|:G,B BA FD|B,C DG FD|CD FG AG|FD CA, [1 A,G,:|2 B,C||
DA AB cA|BG DG B,D|DA AB cA|Bd df fd|
dB BG|A3 B cA|BG DG B,D|Ec cB AG|
FD CD A,D|EB cB AG|FD CD (3DEF||

